X: 41517
T: Un Funghetto Trallallà
R: polka
M: 2/4
K: Gmajor
|G>B dB|ce d2|cB AG|B2 (AB/A/)|
G>B dB|ce d2|cB AG|BA G2:|
Bd g2|gd cB|ce a2|ag fe|
(d/e/d) (c/d/c)|(B/c/B) (A/B/A)|G>A Bc|(^cd) ed|
Bd g2|gd cB|ce a2|ag fe|
(d/e/d) (c/d/c)|(B/c/B) (A/B/A)|G>B AG|AB G2|

